styles/1/Numix/24/places/custom-folder-books.svg

<?xml version="1.0" encoding="UTF-8" standalone="no"?>
<!-- Created with Inkscape (http://www.inkscape.org/) -->

<svg
   xmlns:dc="http://purl.org/dc/elements/1.1/"
   xmlns:cc="http://creativecommons.org/ns#"
   xmlns:rdf="http://www.w3.org/1999/02/22-rdf-syntax-ns#"
   xmlns:svg="http://www.w3.org/2000/svg"
   xmlns="http://www.w3.org/2000/svg"
   xmlns:sodipodi="http://sodipodi.sourceforge.net/DTD/sodipodi-0.dtd"
   xmlns:inkscape="http://www.inkscape.org/namespaces/inkscape"
   id="svg3396"
   height="24"
   width="24"
   version="1.0"
   inkscape:version="0.91 r"
   sodipodi:docname="custom-folder-books.svg">
  <metadata
     id="metadata64">
    <rdf:RDF>
      <cc:Work
         rdf:about="">
        <dc:format>image/svg+xml</dc:format>
        <dc:type
           rdf:resource="http://purl.org/dc/dcmitype/StillImage" />
        <dc:title />
      </cc:Work>
    </rdf:RDF>
  </metadata>
  <sodipodi:namedview
     pagecolor="#ffffff"
     bordercolor="#666666"
     borderopacity="1"
     objecttolerance="10"
     gridtolerance="10"
     guidetolerance="10"
     inkscape:pageopacity="0"
     inkscape:pageshadow="2"
     inkscape:window-width="1366"
     inkscape:window-height="747"
     id="namedview62"
     showgrid="true"
     inkscape:zoom="8"
     inkscape:cx="-20.706255"
     inkscape:cy="6.3472784"
     inkscape:window-x="0"
     inkscape:window-y="21"
     inkscape:window-maximized="1"
     inkscape:current-layer="svg3396">
    <inkscape:grid
       type="xygrid"
       id="grid3906"
       empspacing="5"
       visible="true"
       enabled="true"
       snapvisiblegridlinesonly="true" />
  </sodipodi:namedview>
  <defs
     id="defs3398" />
  <path
     style="color:#000000;font-style:normal;font-variant:normal;font-weight:normal;font-stretch:normal;font-size:medium;line-height:normal;font-family:Sans;-inkscape-font-specification:Sans;text-indent:0;text-align:start;text-decoration:none;text-decoration-line:none;letter-spacing:normal;word-spacing:normal;text-transform:none;direction:ltr;block-progression:tb;writing-mode:lr-tb;baseline-shift:baseline;text-anchor:start;display:inline;overflow:visible;visibility:visible;fill:replacecolour1;fill-opacity:1;fill-rule:nonzero;stroke:none;stroke-width:1.52408636;marker:none;enable-background:accumulate"
     d="m 2.6250001,4 c -0.3474302,0.063546 -0.6251471,0.3968062 -0.625,0.75 l 0,14.5 c 0.00617,0.390979 0.3590206,0.74383 0.75,0.75 L 21.25,20 C 21.640979,19.9938 21.99383,19.640979 22,19.25 L 22,6.8125 C 21.99383,6.4215206 21.640979,6.0061695 21.25,6 L 14,6 14,4.75 C 13.99383,4.3590206 13.640979,4.0061695 13.25,4 L 2.6250001,4 Z m 5,4 C 9.5000001,8 10.75,8.6243156 12,9.666016 13.250001,8.6243156 14.500001,8 16.375,8 L 13,10.5 11,10.5 7.6250001,8 Z m -0.625,0.8339844 L 10,10.916016 l 0,6.25 -2.9999999,-2.082032 0,-6.2499996 z m 9.9999999,0 0,6.2499996 -3,2.082032 0,-6.25 3,-2.0820316 z M 11,12 l 2,0 0,6 -2,0 0,-6 z"
     id="path3912"
     inkscape:connector-curvature="0" />
  <g
     transform="matrix(2.2145669,0,0,2.2145669,6.0000001,-11.000003)"
     inkscape:label="Symbol"
     id="layer3"
     style="fill:#000000;fill-opacity:1">
    <g
       style="fill:#000000;fill-opacity:1"
       id="g4450">
      <g
         style="fill:#000000;fill-opacity:1"
         id="g4526" />
    </g>
  </g>
</svg>

<!-- Created with Inkscape (http://www.inkscape.org/) -->
<svg xmlns="http://www.w3.org/2000/svg" viewBox="0 0 24 24">
 <path d="m 2.625 4 c -0.347 0.064 -0.625 0.397 -0.625 0.75 l 0 14.5 c 0.006 0.391 0.359 0.744 0.75 0.75 l 18.5 0 c 0.391 -0.006 0.744 -0.359 0.75 -0.75 l 0 -12.438 c -0.006 -0.391 -0.359 -0.806 -0.75 -0.813 l -7.25 0 0 -1.25 c -0.006 -0.391 -0.359 -0.744 -0.75 -0.75 l -10.625 0 m 5 4 c 1.875 0 3.125 0.624 4.375 1.666 1.25 -1.042 2.5 -1.666 4.375 -1.666 l -3.375 2.5 -2 0 -3.375 -2.5 m -0.625 0.834 l 3 2.082 l 0 6.25 -3 -2.082 0 -6.25 z m 10 0 0 6.25 -3 2.082 0 -6.25 3 -2.082 z m -6 3.166 l 2 0 0 6 -2 0 0 -6 z" style="visibility:visible;fill:replacecolour1;fill-opacity:1;stroke:none;display:inline;color:#000;fill-rule:nonzero"/>
</svg>
